usr/share/icons/biglinux-icons-material/scalable/apps/distributor-logo-xubuntu.svg

<svg width="64" height="64" viewBox="0 0 16.933 16.933" xmlns="http://www.w3.org/2000/svg"><path d="M8.38 1.323a7.144 7.144 0 1 1 0 14.287 7.144 7.144 0 0 1 0-14.287z" fill="#04a" stroke-width=".927"/><g fill="#fff"><path d="M10.69 4.22c-.02.013-.03.024-.024.016-.23.39-.233.901-.337 1.36a.17.17 0 0 1 0 .023c-.051.502-.215 1.013-.084 1.495a.17.17 0 0 1 .014.03c.024.032.055.06.073.065.014.002.034-.004.082-.037.051-.036.084-.101.1-.196a.17.17 0 0 1 .029-.07c.205-.817.352-1.674.297-2.513a.17.17 0 0 1 0-.009c-.007-.039-.019-.062-.056-.107a.385.385 0 0 0-.048-.051c-.006-.005 0-.006-.024-.004a.17.17 0 0 1-.022-.001zm1.892.398a.159.159 0 0 1-.017 0c-.354.173-.536.59-.78.924a.159.159 0 0 1-.019.047c-.308.546-.7 1.088-.742 1.72.002.1.059.157.118.17a.228.228 0 0 0 .2-.087c.003-.01 0-.018.006-.026a.159.159 0 0 1 .004-.006c.559-.768.981-1.68 1.328-2.565a.159.159 0 0 1 .001-.002c.024-.059.025-.081.004-.125-.006-.013-.069-.055-.103-.05z"/><path d="M7.084 4.873c-.057.01-.141.061-.202.085-.213.08-.33.264-.382.477-.051.22-.034.463 0 .712.035.248.084.504.138.7.047.17.08.252.096.308v.042c0 .019-.009.017-.021.032-.007.004.006.021 0 .021a.09.09 0 0 1-.053.022c-.038.002-.068-.012-.107-.022-.026-.006-.06-.027-.053-.02-.012-.008-.034-.01-.042-.022 0 .005.007.005 0-.01-.009-.017-.018-.057-.032-.086-.03-.064-.054-.139-.095-.233a8.48 8.48 0 0 0-.308-.637 2.048 2.048 0 0 0-.414-.552.696.696 0 0 0-.265-.159.43.43 0 0 0-.287.042.866.866 0 0 0-.425.574c-.052.228-.027.492.011.721.039.23.1.418.138.573.017.066.037.127.042.16a.932.932 0 0 1-.02.148c-.04.14-.139.372-.139.372s-1.852 4.919 2.123 4.574c.033-.002.107-.021.138-.021.78-.157 1.52-.393 2.176-.658.129-.062.298-.123.488-.212.38-.178.857-.407 1.316-.658.459-.253.885-.521 1.21-.807.326-.286.564-.6.52-.913-.07-.504-.404-.878-.849-1.167-.447-.29-1.004-.491-1.56-.637a15.933 15.933 0 0 0-1.507-.33c-.206-.031-.4-.04-.52-.063-.036-.006-.055-.015-.075-.021-.01-.001-.011-.005-.02-.01-.013-.008-.036-.009-.043-.022-.007-.012 0-.028 0-.042v-.329a6.685 6.685 0 0 0-.075-.903c-.053-.314-.135-.614-.307-.817a.602.602 0 0 0-.425-.212.58.58 0 0 0-.17 0z"/></g></svg>

<?xml version="1.0" encoding="UTF-8" standalone="no"?>
<svg
   width="24"
   height="24"
   viewBox="0 0 24 24"
   fill="none"
   version="1.1"
   id="svg154"
   sodipodi:docname="distributor-logo-xubuntu.svg"
   inkscape:version="1.2.2 (b0a8486541, 2022-12-01)"
   xml:space="preserve"
   xmlns:inkscape="http://www.inkscape.org/namespaces/inkscape"
   xmlns:sodipodi="http://sodipodi.sourceforge.net/DTD/sodipodi-0.dtd"
   xmlns:xlink="http://www.w3.org/1999/xlink"
   xmlns="http://www.w3.org/2000/svg"
   xmlns:svg="http://www.w3.org/2000/svg"
   xmlns:sketch="http://www.bohemiancoding.com/sketch/ns"><sodipodi:namedview
     id="namedview156"
     pagecolor="#ffffff"
     bordercolor="#000000"
     borderopacity="1"
     inkscape:showpageshadow="0"
     inkscape:pageopacity="1"
     inkscape:pagecheckerboard="false"
     inkscape:deskcolor="#ffffff"
     showgrid="true"
     inkscape:zoom="45.254834"
     inkscape:cx="13.412932"
     inkscape:cy="14.948679"
     inkscape:window-width="1920"
     inkscape:window-height="1052"
     inkscape:window-x="0"
     inkscape:window-y="0"
     inkscape:window-maximized="1"
     inkscape:current-layer="svg154"
     showguides="true"
     guidecolor="#ff0000"
     guideopacity="1"
     inkscape:lockguides="true"
     showborder="true"
     borderlayer="true"><inkscape:grid
       type="xygrid"
       id="grid356"
       color="#000000"
       opacity="0.10196078"
       empcolor="#000000"
       empopacity="0.10196078"
       snapvisiblegridlinesonly="true"
       enabled="true"
       visible="true"
       dotted="false" /><sodipodi:guide
       position="4.003125,23.042969"
       orientation="1,0"
       id="guide764"
       inkscape:locked="true" /><sodipodi:guide
       position="5.0007813,21.049219"
       orientation="1,0"
       id="guide2218"
       inkscape:locked="true" /><sodipodi:guide
       position="3.6445312,20"
       orientation="0,-1"
       id="guide2220"
       inkscape:locked="true" /><sodipodi:guide
       position="3.796875,5"
       orientation="0,-1"
       id="guide2222"
       inkscape:locked="true" /><sodipodi:guide
       position="3.625,4"
       orientation="0,-1"
       id="guide2224"
       inkscape:locked="true" /><sodipodi:guide
       position="19,4.8984375"
       orientation="1,0"
       id="guide2226"
       inkscape:locked="true" /><sodipodi:guide
       position="20,3.3312502"
       orientation="1,0"
       id="guide2228"
       inkscape:locked="true" /><sodipodi:guide
       position="22.875,19"
       orientation="0,-1"
       id="guide2230"
       inkscape:locked="true" /></sodipodi:namedview><defs
     id="defs152"><radialGradient
       id="radialGradient1281"
       cx="0"
       cy="0"
       r="1"
       gradientUnits="userSpaceOnUse"
       gradientTransform="translate(12 1) rotate(90) scale(22)"><stop
         stop-color="#8FC8FF"
         id="stop1277"
         offset="0.00424011"
         style="stop-color:#ffffff;stop-opacity:1;" /><stop
         offset="0.99151897"
         stop-color="#0056A8"
         id="stop1279"
         style="stop-color:#ffffff;stop-opacity:1;" /></radialGradient><radialGradient
       id="paint0_radial_29_23"
       cx="0"
       cy="0"
       r="1"
       gradientUnits="userSpaceOnUse"
       gradientTransform="translate(12 1) rotate(90) scale(22)"><stop
         stop-color="#8FC8FF"
         id="stop147"
         offset="0"
         style="stop-color:#f6f6f6;stop-opacity:1;" /><stop
         offset="1"
         stop-color="#0056A8"
         id="stop149"
         style="stop-color:#cfcfcf;stop-opacity:1;" /></radialGradient><radialGradient
       id="paint0_radial_10_2"
       cx="0"
       cy="0"
       r="1"
       gradientUnits="userSpaceOnUse"
       gradientTransform="matrix(-10.999959,21.999967,-21.999967,-10.999959,17.5,1)"
       xlink:href="#paint0_radial_29_23"><stop
         stop-color="#777777"
         id="stop2847" /><stop
         offset="1"
         stop-color="#222222"
         id="stop2849" /></radialGradient><linearGradient
       x1="12"
       y1="1"
       x2="12"
       y2="23"
       gradientUnits="userSpaceOnUse"
       gradientTransform="matrix(0.75,0,0,0.75,-7.98374e-6,2.65834e-5)"
       spreadMethod="pad"
       id="linearGradient44915"><stop
         style="stop-opacity:1;stop-color:#ff5f5f"
         offset="0"
         id="stop44911" /><stop
         style="stop-opacity:1;stop-color:#e82e34"
         offset="1"
         id="stop44913" /></linearGradient><radialGradient
       id="SVGID_1_"
       cx="85.226997"
       cy="71.662003"
       r="47.776001"
       gradientTransform="matrix(1,0,0,-1,0,103.8)"
       gradientUnits="userSpaceOnUse"><stop
         offset="0"
         stop-color="#00aeff"
         id="stop12" /><stop
         offset=".131"
         stop-color="#00a5f7"
         id="stop14" /><stop
         offset=".345"
         stop-color="#008de0"
         id="stop16" /><stop
         offset=".616"
         stop-color="#0065ba"
         id="stop18" /><stop
         offset=".928"
         stop-color="#002f87"
         id="stop20" /><stop
         offset="1"
         stop-color="#00217a"
         id="stop22" /></radialGradient><linearGradient
       id="SVGID_3_"
       gradientUnits="userSpaceOnUse"
       x1="92.800003"
       y1="72.949997"
       x2="130.763"
       y2="72.949997"
       gradientTransform="matrix(1,0,0,-1,0,103.8)"><stop
         offset="0"
         stop-color="#FFF"
         id="stop29" /><stop
         offset="1"
         stop-color="#FFF"
         stop-opacity="0"
         id="stop31" /></linearGradient><radialGradient
       id="SVGID_4_"
       cx="83.728996"
       cy="73.999001"
       r="8.2860003"
       gradientTransform="matrix(1,0,0,-1,0,103.8)"
       gradientUnits="userSpaceOnUse"><stop
         offset="0"
         stop-color="#FFF"
         id="stop36" /><stop
         offset=".679"
         stop-color="#7a7a7a"
         id="stop38" /><stop
         offset="1"
         stop-color="#404040"
         id="stop40" /></radialGradient><radialGradient
       fx="0"
       fy="0"
       cx="0"
       cy="0"
       r="1"
       gradientUnits="userSpaceOnUse"
       gradientTransform="matrix(0,16.5,-16.5,0,8.999996,0.750012)"
       spreadMethod="pad"
       id="radialGradient3666-6"><stop
         style="stop-color:#ffffff;stop-opacity:1;"
         offset="0"
         id="stop3662-7" /><stop
         style="stop-color:#f7da4d;stop-opacity:1;"
         offset="1"
         id="stop3664-5" /></radialGradient><clipPath
       id="a"><path
         d="M 0,0.113 H 91.887 V 92 H 0 Z m 0,0"
         id="path76179" /></clipPath><clipPath
       id="a-3"><path
         d="M 0,0.113 H 91.887 V 92 H 0 Z m 0,0"
         id="path76179-5" /></clipPath><radialGradient
       fx="0"
       fy="0"
       cx="0"
       cy="0"
       r="1"
       gradientUnits="userSpaceOnUse"
       gradientTransform="matrix(0,16.5,-16.5,0,8.999996,0.750012)"
       spreadMethod="pad"
       id="radialGradient3666-6-2"><stop
         style="stop-color:#ffffff;stop-opacity:1;"
         offset="0"
         id="stop3662-7-9" /><stop
         style="stop-color:#3dc89a;stop-opacity:1;"
         offset="1"
         id="stop3664-5-1" /></radialGradient><linearGradient
       id="paint0_linear_3_169"
       x1="12"
       y1="1"
       x2="12"
       y2="12"
       gradientUnits="userSpaceOnUse"><stop
         stop-color="#AAA2FF"
         id="stop132364" /><stop
         offset="1"
         stop-color="#7164EE"
         id="stop132366" /></linearGradient><linearGradient
       id="paint0_linear_3_169-2"
       x1="12"
       y1="1"
       x2="12"
       y2="12"
       gradientUnits="userSpaceOnUse"><stop
         stop-color="#AAA2FF"
         id="stop133305" /><stop
         offset="1"
         stop-color="#7164EE"
         id="stop133307" /></linearGradient><linearGradient
       id="a-7"
       x1="1"
       x2="47"
       gradientTransform="matrix(0,-1.1304,1.1304,0,-0.13,48.13)"
       gradientUnits="userSpaceOnUse"><stop
         stop-color="#31af54"
         offset="0"
         id="stop187140" /><stop
         stop-color="#35bf5c"
         offset="1"
         id="stop187142" /></linearGradient></defs><path
     d="M 50,5 C 9.0909092,5 5,25.454546 5,50 5,82.727274 17.272728,95 50,95 82.727274,95 95,82.727274 95,50 95,25.454546 90.909093,5 50,5 Z"
     sketch:type="MSShapeGroup"
     id="path6"
     style="font-variation-settings:normal;display:inline;opacity:1;vector-effect:none;fill:#0044aa;fill-opacity:1;stroke-width:4.56656;stroke-linecap:butt;stroke-linejoin:miter;stroke-miterlimit:4;stroke-dasharray:none;stroke-dashoffset:0;stroke-opacity:1;-inkscape-stroke:none;stop-color:#000000;stop-opacity:1"
     sodipodi:nodetypes="sssss"
     inkscape:label="Shape"
     transform="matrix(0.24444444,0,0,0.24444444,-0.22222222,-0.22222222)"
     sodipodi:insensitive="true" /><g
     inkscape:groupmode="layer"
     id="layer4"
     inkscape:label="Colors References"
     style="display:none"
     sodipodi:insensitive="true"
     inkscape:highlight-color="#cc5ecc"><rect
       style="display:inline;fill:#3947be;fill-opacity:1;stroke-width:22.6872;paint-order:markers stroke fill"
       id="rect7816"
       width="1.9999923"
       height="2"
       x="12"
       y="-2.9999964"
       rx="0"
       ry="0"
       inkscape:label="Dark Blue" /><rect
       style="display:inline;fill:#6c7ad8;fill-opacity:1;stroke-width:22.6873;paint-order:markers stroke fill"
       id="rect7820"
       width="2"
       height="2.0000076"
       x="9"
       y="-3.0000041"
       rx="0"
       ry="0"
       inkscape:label="Blue" /><rect
       style="display:inline;fill:#33cc33;fill-opacity:1;stroke-width:22.6873;paint-order:markers stroke fill"
       id="rect7814"
       width="2"
       height="2.0000076"
       x="6"
       y="-3.0000041"
       rx="0"
       ry="0"
       inkscape:label="Green" /><rect
       style="display:inline;fill:#ffc328;fill-opacity:1;stroke-width:22.6872;paint-order:markers stroke fill"
       id="rect7824"
       width="1.9999926"
       height="2.0000002"
       x="3"
       y="-2.9999964"
       rx="0"
       ry="0"
       inkscape:label="Yellow" /><rect
       style="display:inline;fill:#cc5e55;fill-opacity:1;stroke-width:22.6873;paint-order:markers stroke fill"
       id="rect7822"
       width="2"
       height="2.0000076"
       x="0"
       y="-3.0000038"
       rx="0"
       ry="0"
       inkscape:label="Red" /><rect
       style="display:inline;fill:#0bb1cb;fill-opacity:1;stroke-width:22.6872;paint-order:markers stroke fill"
       id="rect3087"
       width="1.9999919"
       height="1.9999996"
       x="-3"
       y="12.000004"
       rx="0"
       ry="0"
       inkscape:label="Blue 4" /><rect
       style="display:inline;fill:#2a92c9;fill-opacity:1;stroke-width:22.6873;paint-order:markers stroke fill"
       id="rect3085"
       width="2"
       height="2.0000079"
       x="-3"
       y="8.9999962"
       rx="0"
       ry="0"
       inkscape:label="Blue 3" /><rect
       style="display:inline;fill:#006699;fill-opacity:1;stroke-width:22.6873;paint-order:markers stroke fill"
       id="rect3089"
       width="2"
       height="2.0000076"
       x="-3"
       y="6.0000038"
       rx="0"
       ry="0"
       inkscape:label="Blue 2" /><rect
       style="display:inline;fill:#002a44;fill-opacity:1;stroke-width:22.6873;paint-order:markers stroke fill"
       id="rect3083"
       width="2"
       height="2.0000076"
       x="-3"
       y="2.9999962"
       rx="0"
       ry="0"
       inkscape:label="Blue 1" /><rect
       style="display:inline;fill:#2c2d3d;fill-opacity:1;stroke-width:22.6873;paint-order:markers stroke fill"
       id="rect3456"
       width="2"
       height="2.0000076"
       x="-3"
       y="-3.8146973e-06"
       rx="0"
       ry="0"
       inkscape:label="Gray" /><rect
       style="display:inline;fill:#16171c;fill-opacity:1;stroke-width:22.6872;paint-order:markers stroke fill"
       id="rect3091"
       width="1.9999924"
       height="2"
       x="-3"
       y="-3"
       rx="0"
       ry="0"
       inkscape:label="Black" /></g><g
     id="g233133"
     transform="matrix(1.6534203,0,0,1.6534203,-1.9987077,-1.9981331)"><g
       fill="#ffffff"
       id="g233004"><path
         d="m 10.69,4.22 c -0.02,0.013 -0.03,0.024 -0.024,0.016 -0.23,0.39 -0.233,0.901 -0.337,1.36 a 0.17,0.17 0 0 1 0,0.023 c -0.051,0.502 -0.215,1.013 -0.084,1.495 a 0.17,0.17 0 0 1 0.014,0.03 c 0.024,0.032 0.055,0.06 0.073,0.065 0.014,0.002 0.034,-0.004 0.082,-0.037 0.051,-0.036 0.084,-0.101 0.1,-0.196 a 0.17,0.17 0 0 1 0.029,-0.07 C 10.748,6.089 10.895,5.232 10.84,4.393 a 0.17,0.17 0 0 1 0,-0.009 C 10.833,4.345 10.821,4.322 10.784,4.277 A 0.385,0.385 0 0 0 10.736,4.226 C 10.73,4.221 10.736,4.22 10.712,4.222 A 0.17,0.17 0 0 1 10.69,4.221 Z m 1.892,0.398 a 0.159,0.159 0 0 1 -0.017,0 c -0.354,0.173 -0.536,0.59 -0.78,0.924 a 0.159,0.159 0 0 1 -0.019,0.047 c -0.308,0.546 -0.7,1.088 -0.742,1.72 0.002,0.1 0.059,0.157 0.118,0.17 a 0.228,0.228 0 0 0 0.2,-0.087 c 0.003,-0.01 0,-0.018 0.006,-0.026 A 0.159,0.159 0 0 1 11.352,7.36 C 11.911,6.592 12.333,5.68 12.68,4.795 A 0.159,0.159 0 0 1 12.681,4.793 C 12.705,4.734 12.706,4.712 12.685,4.668 12.679,4.655 12.616,4.613 12.582,4.618 Z"
         id="path233000" /><path
         d="M 7.084,4.873 C 7.027,4.883 6.943,4.934 6.882,4.958 6.669,5.038 6.552,5.222 6.5,5.435 c -0.051,0.22 -0.034,0.463 0,0.712 0.035,0.248 0.084,0.504 0.138,0.7 0.047,0.17 0.08,0.252 0.096,0.308 v 0.042 c 0,0.019 -0.009,0.017 -0.021,0.032 -0.007,0.004 0.006,0.021 0,0.021 A 0.09,0.09 0 0 1 6.66,7.272 C 6.622,7.274 6.592,7.26 6.553,7.25 6.527,7.244 6.493,7.223 6.5,7.23 6.488,7.222 6.466,7.22 6.458,7.208 c 0,0.005 0.007,0.005 0,-0.01 C 6.449,7.181 6.44,7.141 6.426,7.112 6.396,7.048 6.372,6.973 6.331,6.879 A 8.48,8.48 0 0 0 6.023,6.242 2.048,2.048 0 0 0 5.609,5.69 0.696,0.696 0 0 0 5.344,5.531 0.43,0.43 0 0 0 5.057,5.573 0.866,0.866 0 0 0 4.632,6.147 C 4.58,6.375 4.605,6.639 4.643,6.868 c 0.039,0.23 0.1,0.418 0.138,0.573 0.017,0.066 0.037,0.127 0.042,0.16 a 0.932,0.932 0 0 1 -0.02,0.148 c -0.04,0.14 -0.139,0.372 -0.139,0.372 0,0 -1.852,4.919 2.123,4.574 0.033,-0.002 0.107,-0.021 0.138,-0.021 0.78,-0.157 1.52,-0.393 2.176,-0.658 0.129,-0.062 0.298,-0.123 0.488,-0.212 0.38,-0.178 0.857,-0.407 1.316,-0.658 0.459,-0.253 0.885,-0.521 1.21,-0.807 0.326,-0.286 0.564,-0.6 0.52,-0.913 C 12.565,8.922 12.231,8.548 11.786,8.259 11.339,7.969 10.782,7.768 10.226,7.622 A 15.933,15.933 0 0 0 8.719,7.292 C 8.513,7.261 8.319,7.252 8.199,7.229 8.163,7.223 8.144,7.214 8.124,7.208 8.114,7.207 8.113,7.203 8.104,7.198 8.091,7.19 8.068,7.189 8.061,7.176 c -0.007,-0.012 0,-0.028 0,-0.042 V 6.805 A 6.685,6.685 0 0 0 7.986,5.902 C 7.933,5.588 7.851,5.288 7.679,5.085 a 0.602,0.602 0 0 0 -0.425,-0.212 0.58,0.58 0 0 0 -0.17,0 z"
         id="path233002" /></g></g></svg>
